X:1
T:Polska frn Brotorp
R:Slngpolska
Z:Transkription till abc av Jon Magnusson
O:Brotorp
S:efter Anders Persson
D:Pelle Bjrnlert, Fors
M:3/4
L:1/16
K:Dm
|:A2d2 fe^ce e2d2|AGAB cBAG B2A2|
F2AF E2FE D^CDE|FED^C DEFG A4|
A2d2 fe^ce e2d2|AGAB cBAG B2A2|
F2AF E2FE D^CDE|FED^C C8|D8z4:|:
f2fa fcfa a2gf|egeg eceg g2fe|
f2fa fcfa a2gf|egeg eceg g2fe|
d^cde fefg a2d2|fed^c c2d2 d4:|
